X:3955
L:1/8
M:4/4
K:F
 A | cF FF/F/ cBAc | f2 cf dfcf | cF FF/F/ cFAF | Dddc AG G2 :| f | g2 ag fddf | cfdf cfdf | 
 g2 ag fddf | cAfA AG G2 | g2 ag fddf | cfdf cfdf | bagf ga/b/ ag | fdcA G3 ||

